packages/kaspersky-hexa-ui-icons/src/iconsSVGs/64x42/FlagHr.svg

<svg xmlns="http://www.w3.org/2000/svg" width="64" height="42" fill="none" viewBox="0 0 64 42"><g clip-path="url(#a)"><rect width="64" height="42" fill="#fff" rx="5"/><rect width="63" height="41" x="1" y="1" stroke="#f5f5f5" rx="5"/><path fill="#ff202d" d="M0 0h64v14H0z"/><path fill="#2027ac" d="M0 28h64v14H0z"/><path fill="#1895db" fill-rule="evenodd" d="m24.9954 11.1955 1.4009-1.4009 1.4009 1.4009v2.8019h-2.8018zm5.6035 0 1.401-1.4009 1.4009 1.4009v2.8019h-2.8019zm7.0049-1.4009-1.4009 1.4009v2.8019h2.8019v-2.8019z" clip-rule="evenodd"/><path fill="#191f94" fill-rule="evenodd" d="m29.1982 9.7946-1.401 1.4009v2.8019h2.8019v-2.8019zm5.6035 0-1.4009 1.4009v2.8019h2.8018v-2.8019z" clip-rule="evenodd"/><path fill="url(#b)" fill-rule="evenodd" d="M30.599 13.9973h2.8018v2.8019H30.599zm5.6039 0h1.401l1.4009 2.8019h-2.8019zm-8.4056.0001h-1.401l-1.4009 2.8018h2.8018v2.8019h2.8019v-2.8019h-2.8018zm8.4054 2.8018h-2.8019v2.8019h2.8019zm-5.6037 2.8019h2.8018v2.8019H30.599zm8.4058 2.8019v-2.8019h-2.8019v2.8019zm-5.604 0h2.8019v2.8019h-2.8019zm-5.6036-2.8019h-2.8018v2.8019h2.8018zm0 2.8019h2.8019v2.8017h2.8017v2.8019H30.599v-2.8017h-2.8018zm0 2.8017h-2.8018v2.8019h2.8018zm11.2076 2.8019v-2.8019h-2.8019v2.8019zm-5.604.0001h2.8019v2.8019h-2.8019zm-2.8017 0h-2.8019v2.8019h2.8019z" clip-rule="evenodd"/></g><defs><linearGradient id="b" x1="25" x2="25" y1="14" y2="31" gradientUnits="userSpaceOnUse"><stop stop-color="#ff212e"/><stop offset="1" stop-color="#fd0d1b"/></linearGradient><clipPath id="a"><rect width="64" height="42" fill="#fff" rx="5"/></clipPath></defs></svg>

<svg width="64" height="42" viewBox="0 0 64 42" fill="none" xmlns="http://www.w3.org/2000/svg">
<g clip-path="url(#clip0_37941_2261)">
<rect width="64" height="42" rx="5" fill="white"/>
<rect x="0.5" y="0.5" width="63" height="41" rx="4.5" stroke="#F5F5F5"/>
<rect width="64" height="14" fill="#FF202D"/>
<rect y="28" width="64" height="14" fill="#2027AC"/>
<path opacity="0.5" fill-rule="evenodd" clip-rule="evenodd" d="M24.9954 11.1955L26.3963 9.79462L27.7972 11.1955V13.9974H24.9954V11.1955ZM30.5989 11.1955L31.9999 9.79462L33.4008 11.1955V13.9974H30.5989V11.1955ZM37.6038 9.79462L36.2029 11.1955V13.9974H39.0048V11.1955L37.6038 9.79462Z" fill="#1895DB"/>
<path opacity="0.5" fill-rule="evenodd" clip-rule="evenodd" d="M29.1982 9.79462L27.7972 11.1955V13.9974H30.5991V11.1955L29.1982 9.79462ZM34.8017 9.79462L33.4008 11.1955V13.9974H36.2026V11.1955L34.8017 9.79462Z" fill="#191F94"/>
<path fill-rule="evenodd" clip-rule="evenodd" d="M30.599 13.9973H33.4008V16.7992H30.599V13.9973ZM36.2029 13.9973H37.6039L39.0048 16.7992H36.2029V13.9973ZM27.7973 13.9974H26.3963L24.9954 16.7992H27.7972V19.6011H30.5991V16.7992H27.7973V13.9974ZM36.2027 16.7992H33.4008V19.6011H36.2027V16.7992ZM30.599 19.6011H33.4008V22.403H30.599V19.6011ZM39.0048 22.403V19.6011H36.2029V22.403H39.0048ZM33.4008 22.403H36.2027V25.2049H33.4008V22.403ZM27.7972 19.6011H24.9954V22.403H27.7972V19.6011ZM27.7972 22.403H30.5991V25.2047H33.4008V28.0066H30.599V25.2049H27.7972V22.403ZM27.7972 25.2047H24.9954V28.0066H27.7972V25.2047ZM39.0048 28.0066V25.2047H36.2029V28.0066H39.0048ZM33.4008 28.0067H36.2027V30.8086H33.4008V28.0067ZM30.5991 28.0067H27.7972V30.8086H30.5991V28.0067Z" fill="url(#paint0_linear_37941_2261)"/>
</g>
<defs>
<linearGradient id="paint0_linear_37941_2261" x1="24.9954" y1="13.9973" x2="24.9954" y2="30.8085" gradientUnits="userSpaceOnUse">
<stop stop-color="#FF212E"/>
<stop offset="1" stop-color="#FD0D1B"/>
</linearGradient>
<clipPath id="clip0_37941_2261">
<rect width="64" height="42" rx="5" fill="white"/>
</clipPath>
</defs>
</svg>
